qrcode-scan.svg

<svg fill="currentColor" viewBox="0 0 24 24"><path d="M4 4h6v6H4zm16 0v6h-6V4zm-6 11h2v-2h-2v-2h2v2h2v-2h2v2h-2v2h2v3h-2v2h-2v-2h-3v2h-2v-4h3zm2 0v3h2v-3zM4 20v-6h6v6zM6 6v2h2V6zm10 0v2h2V6zM6 16v2h2v-2zm-2-5h2v2H4zm5 0h4v4h-2v-2H9zm2-5h2v4h-2zM2 2v4H0V2a2 2 0 0 1 2-2h4v2zm20-2a2 2 0 0 1 2 2v4h-2V2h-4V0zM2 18v4h4v2H2a2 2 0 0 1-2-2v-4zm20 4v-4h2v4a2 2 0 0 1-2 2h-4v-2z"/></svg>

<svg  viewBox="0 0 24 24" fill="currentColor"><path  d="M4,4H10V10H4V4M20,4V10H14V4H20M14,15H16V13H14V11H16V13H18V11H20V13H18V15H20V18H18V20H16V18H13V20H11V16H14V15M16,15V18H18V15H16M4,20V14H10V20H4M6,6V8H8V6H6M16,6V8H18V6H16M6,16V18H8V16H6M4,11H6V13H4V11M9,11H13V15H11V13H9V11M11,6H13V10H11V6M2,2V6H0V2A2,2 0 0,1 2,0H6V2H2M22,0A2,2 0 0,1 24,2V6H22V2H18V0H22M2,18V22H6V24H2A2,2 0 0,1 0,22V18H2M22,22V18H24V22A2,2 0 0,1 22,24H18V22H22Z"/></svg>
